X:1
T:Parsifal Overture
T:Overture to the Opera "Parsifal"
T:Richard Wagner
T:Arranged for piano by Richard Kleinmichel
C:Richard Wagner
Z:Arr. for piano by Albert Heintz
%%score { ( 1 4 6 ) | ( 2 3 5 ) }
L:1/8
M:4/4
K:Ab
V:1 treble nm="Piano" snm="Pno."
V:4 treble 
V:6 treble 
V:2 bass 
V:3 bass 
V:5 bass 
V:1
 z2[Q:1/4=36]"^Sehr langsam"!ppp! A,2- A,!<(! C2 E- | E>F F2- F G2!<)!!mp! A |!p! G2!>(! C>=D E4- | %3
 EA,B,C!>)!!pp! _D4- | D C2 B,- B,3 C |[Q:1/4=44] C4[K:bass]!pp! x2 x/[K:treble] x/ A/4E/4C/4A,/4 | %6
 x c/4A/4E/4C/4 x e/4c/4A/4E/4 x a/4e/4c/4A/4[I:staff +1] E,/4A/4[I:staff -1]c/4e/4 c'/4a/4e/4c/4 | %7
[I:staff +1] A,/4c/4[I:staff -1]e/4a/4 e'/4c'/4a/4e/4[I:staff +1] C/4e/4!8va(![I:staff -1]a/4c'/4a'/4e'/4c'/4a/4!8va)![I:staff +1] E/4a/4!8va(![I:staff -1]c'/4e'/4 c''/4a'/4e'/4c'/4!8va)![I:staff +1] A/4c'/4!8va(![I:staff -1]e'/4a'/4 e''/4c''/4a'/4e'/4!8va)! | %8
[I:staff +1] c/4c'/4!8va(![I:staff -1]e'/4a'/4 e''/4c''/4a'/4e'/4 z/4 e'/4a'/4c''/4 e''/4c''/4a'/4e'/4 z/4 e'/4a'/4c''/4 e''/4c''/4a'/4e'/4 z/4 e'/4a'/4c''/4 e''/4c''/4a'/4e'/4 | %9
 z/4 e'/4a'/4c''/4 e''/4c''/4a'/4e'/4 z/4 e'/4a'/4c''/4 e''/4c''/4a'/4e'/4 z/4 f'/4a'/4c''/4 f''/4c''/4a'/4f'/4 z/4 f'/4a'/4c''/4 f''/4c''/4a'/4f'/4 | %10
 z/4 g'/4c''/4e''/4g''/4e''/4c''/4g'/4!8va)! z/4 g/4c'/4e'/4g'/4e'/4c'/4g/4 z/4 g/4c'/4e'/4g'/4e'/4c'/4g/4 z/4 g/4c'/4e'/4g'/4e'/4c'/4g/4 | %11
 z/4 g/4c'/4e'/4g'/4e'/4c'/4g/4 z/4 f/4a/4e'/4f'/4e'/4a/4f/4 z/4 f/4a/4_d'/4f'/4d'/4a/4f/4 z/4 f/4a/4d'/4f'/4d'/4a/4f/4 | %12
 z/4 f/4a/4d'/4f'/4d'/4a/4f/4 z/4 f/4a/4d'/4f'/4d'/4a/4f/4 z/4 e/4g/4d'/4e'/4d'/4g/4e/4 z/4 e/4g/4d'/4e'/4d'/4g/4e/4 | %13
 z/4!pp! e/4a/4c'/4e'/4c'/4a/4e/4[I:staff +1] !>!A,/4A/4[I:staff -1]c/4e/4 c'/4a/4e/4c/4 x a/4e/4c/4A/4 x e/4c/4A/4E/4 | %14
 x c/4A/4E/4C/4 x A/4E/4C/4A,/4 x/[K:bass] x/ E/4C/4A,/4E,/4 x C/4A,/4E,/4C,/4 | %15
 x C/4A,/4E,/4C,/4 x/[K:treble] z/ c/4A/4E/4C/4 x[K:bass] x x2 | %16
[Q:1/4=36] [A,E]/[K:treble][CEA][EAc][Ace][CEA]/- [CEA]/[EAc][Ace][cea][EAc]/- | %17
 [EAc]/[Ace][cea][eac']!8va(![ac'e']/- [ac'e']/[c'e'a'][e'a'c''][a'c''e''][a'c''e'']/- | %18
!ppp! [a'c''e'']2[Q:1/4=36] !tenuto![a'c''e'']4!ppp! !tenuto![a'c''e'']2!8va)! | %19
[Q:1/4=18] !fermata!z2!ppp![Q:1/4=36] C2- C!<(! E2 G- | G>A A2- A =B2!<)!!p! c | %21
 =B2!p!!>(! =E>^F G4- | GC=D_E!>)!!p! E4- |!<(! E =D2 C- C!<)! =B,2-!>(! B,/C/!>)! | %24
[Q:1/4=44]!pp! C4[K:bass] x E/4C/4G,/4E,/4 x/[K:treble] x/ G/4E/4C/4G,/4 | %25
 x c/4G/4E/4C/4 x e/4c/4G/4E/4 x g/4e/4c/4G/4[I:staff +1] E,/4G/4[I:staff -1]c/4e/4 c'/4g/4e/4c/4 | %26
[I:staff +1] G,/4c/4!8va(![I:staff -1]e/4g/4 e'/4c'/4g/4e/4!8va)![I:staff +1] C/4e/4!8va(![I:staff -1]g/4c'/4 g'/4e'/4c'/4g/4!8va)![I:staff +1] E/4e/4!8va(![I:staff -1]g/4c'/4 g'/4e'/4c'/4g/4!8va)![I:staff +1] E/4g/4!8va(![I:staff -1]c'/4e'/4 c''/4g'/4e'/4c'/4!8va)! | %27
[I:staff +1] G/4g/4!8va(![I:staff -1]c'/4e'/4 c''/4g'/4e'/4c'/4 z/4 e'/4g'/4c''/4 e''/4c''/4g'/4e'/4 z/4 e'/4g'/4c''/4 e''/4c''/4g'/4e'/4 z/4 e'/4g'/4c''/4 e''/4c''/4g'/4e'/4!8va)! | %28
!p! g>a a2-!<(! a[Q:1/4=40] =b2!<)!!p! c' |[Q:1/4=44]!>(! =b2!p! =e>^f!>)!!p! g4- | %30
!<(! gc=d>e!<)!!mp! !>!e4- | e =d2 c- c =B2- B/c/ | %32
 x2!pp![I:staff +1] !>!C/4c/4[I:staff -1]e/4g/4 e'/4c'/4g/4e/4[I:staff +1] !>!G,/4G/4[I:staff -1]c/4e/4 c'/4g/4e/4c/4 x g/4e/4c/4G/4 | %33
 x e/4c/4G/4E/4 x c/4G/4E/4C/4 x G/4E/4C/4G,/4 x/[K:bass] x/ E/4C/4G,/4E,/4 | %34
!pp! x E/4C/4G,/4E,/4 x/[K:treble] x/ e/4c/4G/4E/4 x/[K:bass] x/ E/4C/4G,/4E,/4 x[K:treble] x | %35
[Q:1/4=36] [CG]/[EGc][Gce][ceg][EGc]/- [EGc]/[Gce][ceg][egc'][Gce]/- | %36
 [Gce]/[ceg][egc']!8va(![gc'e'][c'e'g']/- [c'e'g']/[e'g'c''][g'c''e''][e'c''e''][e'c''e'']/- | %37
 [e'c''e'']2[Q:1/4=36] !tenuto![e'c''e'']4!ppp![Q:1/4=12] !tenuto![e'c''e'']2!8va)! | %38
!p![Q:1/4=44] E4!<(! [CF]3 [DA] | [DA]4 [DB][Ec][Fd][Ge]!<)! |!f! [Ae]4!pp! [ce]4- | %41
!<(! [ce]4 f[Bg][Q:1/4=40][ca]!<)!!p![=db] |!pp![Q:1/4=44]!>(! [eb]8!>)! || %43
[M:6/4][Q:1/4=72] z6 z2 z2!f! !>!E2 | !>!A2 !>!G2 !>!F2 !>!E4 !>!F2 | !>![B,EG]12- | %46
!p! [B,EG]2 z2 z2 z2 z2!ff! !>!_G2 | !>!_c2 !>!B2 !>!A2 !>!_G4 !>!A2 | [D_GB]12- | %49
 [DGB]2[Q:1/4=80] z2 z2 z2 z2!ff! !>!=A2 | !>!=d2 !>!_d2 !>!=B2 !>!=A4 !>!B2 | %51
 !>!d2 !>!=B2 !>!=A2 !>!^G4 !>!^A2 |!>(! !>!_c2 !>!_B2 !>!_A2 !>!B2- B!>!_G- G2 | %53
 A2- A _G2[Q:1/4=70] F- F E2 =D2 E!>)! ||[M:4/4]!p![Q:1/4=60] [_G,B,E]8 x2 | %55
!p![Q:1/4=44] [E_G]4 [EA]3 [_F_c] |!<(! [_F_c]4 [Fd][_Ge][Q:1/4=36][A_f]!<)!!mp![B_g] | %57
[Q:1/4=60]!>(! [_c_g]8-!>)! | [cg]4 (3z2 z2!p! _g2 ||[M:6/4][Q:1/4=84] _c'2 b2 a2 _g4 a2 | %60
 b2 a2 _g2 f4 g2 | a2 _g2 f2 g2!pp! f3 e |!p! d2"_cresc." c2 B2 A4 B2 | c2 B2 A2 =G4 A2 | %64
 B2 A2 G2 A2 G3 F |[K:bass]!f! !>!E2 !>!=D2 !>!C2 !>!B,4 !>!C2 | %66
 !>!_D2 !>!C2 !>!B,2 !>!A,4 !>!B,2 | !>!C2 !>!B,2 !>!A,2 !>!D2 !>!C3 !>!B,!mp! || %68
[M:9/4][K:treble] !>![A,CA]2 !>![G,G]2 !>!F2 !>![A,CE]6- [A,CE]2 !>![A,DF]4 | %69
 [B,EG]6- [B,EG]2 !>![A,F]2 !>![B,E]2 !>![_G,B,D]2- [G,B,D][Q:1/4=60][G,B,E]- [G,B,E]2 | %70
[K:bass][Q:1/4=80]!>(! !>![A,DF]2 !>![A,E]2 !>!D2 !>![E,A,E]4 !>![F,A,C]2- [F,A,C]2!>)!!pp! !>![F,A,D]4- || %71
[M:6/4] [F,A,-D-]6 [A,D]2[Q:1/4=60] z2[K:treble]!pp![Q:1/4=76] e2 | [ca]2 [Bg]2 [Af]2 e4 f2 | %73
 [cg]2 [Af]2 [Ge]2 d4 e2 | f2 e2 d2 e2 c4 | d6- d2 c2 B2 | [DEGB]6- [DEGB]4[Q:1/4=44]!pp! [CAc]2 || %77
[M:4/4]!pp![Q:1/4=76] [CAc]8- | [CAc]2 z2 z4 |[Q:1/4=36] z2!pp!!<(! A,2- A, C2 E- | %80
 E>F F2- F G2!<)!!pp! A |!ppp! !////-!c2 e2!<(! !////-!c e !////-![=Ac] e | %82
!ppp! !///-![_Ac]/=d/ !////-!c3/2 d3/2!<)!!ppp! !////-![B_d]2!>(! f2!>)! | %83
!ppp! !////-![Bd]2 _g2 !////-![Bd]2 g2 | !////-![_ce]2 _g2!<(! !////-![ce]2 g2 | %85
 !////-![_ce]2 _g2 !////-![ce] g !////-!e g!<)! | %86
!ppp! !////-!e2!>(! _g2 !////-!e g!>)!!ppp! !////-![=ce] g | %87
!<(! !///-![_ce]/f/ !////-!e3/2 f3/2!<)!!ppp! !////-![d_f]2 a2 || %88
[K:D]!ppp! !////-![ce]2 a2 !////-![ce]2 a2 | !////-![d=f]2 a2 !////-![df]2 a2 | %90
 !////-![de]2 g2 !////-![eg]2 _b2 | !////-![eg]2 =b2 !////-![eg]2 _b2 | %92
 !////-![eg]2 =b2 !////-![eg] _b !///-![eg]3/4b3/4 =f/8b/8f/8b/8 | %93
 !////-!f2 a2 !////-![cf] a !////-![=c^d] a | %94
 !////-![=c^d]2 a2!<(! !///-![Be]/a/ !///-![Be]/g/ !///-![_B_e]/g/ !///-![Bd]/f/!<)! | %95
!ppp!!>(! !///-![Ac]/f/ !///-![Ac]/=f/ !///-![^Gc]/f/!>)!!ppp! !///-![=Gc]/e/!ppp! !////-!_B, C !////-!B, D | %96
!p! d2!mp! c2!>(! =c2 =B_B!>)! ||[K:Ab]!p!!<(! z ABc!<)!!mp! d3 !>!c | %98
!f! !>!c=B- B/B/c/4B/4^A/4B/4"_dim." =dc _B>=A | =AB- B/A_A/-!p! A [G,B,-D-G]2 [A,B,DA]- | %100
 [A,B,DA]/ z/ [G,B,_FG]2 [A,A]- [A,A]/ z/!>(! [G,DFG]2 [A,A]!>)! |!pp! z [C_EG]3- [CEG]C=DE | %102
[K:bass] E8 | EA,-B,C D4- | D2 C4 CB, |[K:treble]!pp! z2 D2- D F2 A- | A>B B2- B d2 f- | %107
 f>g g2- g b2 d'- | d'>e' e'3!ppp! [gbd'e']2 [gbd'e']- | %109
 [gbd'e'] [gbd'e']2 [gbd'e']2 [gbd'e']2 [gbd'e']- | %110
 [gbd'e']!8va(! [g'b'd''e'']2 [g'b'd''e'']2 [g'b'd''e'']2 [g'b'd''e'']- | %111
 [g'b'd''e''] [g'b'd''e'']2 [g'b'd''e'']2 [g'b'd''e'']2 [g'b'd''e'']- | %112
 [g'b'd''e''] [g'b'd''e'']2 [g'b'd''e'']- [g'b'd''e'']4!8va)! |!pp!!8va(! [ce]4!>(! [cf]3 [da] | %114
 [da]4 [db][ec'][fd'][ge']!>)! |!ppp! [cae']8!8va)! |] %116
V:2
 z8 | z8 | z8 | z8 | z8 | %5
 z4!ped! A,,,/4C,/4[I:staff -1]E,/4A,/4E/4C/4A,/4E,/4[I:staff +1] C,,/4E,/4[I:staff -1]A,/4C/4[I:staff +1] z | %6
 E,,/4A,/4[I:staff -1]C/4E/4[I:staff +1] z A,,/4C/4[I:staff -1]E/4A/4[I:staff +1] x C,/4E/4[I:staff -1]A/4c/4[I:staff +1] x x2 | %7
[K:treble] x8 | x2!p! A2- A c2 e- | e>f f2-!pp! f!p! g2 a | g2 c>=d e4- | e!p!ABc _d4- | %12
 d!p! c2 B-!pp! B3!p! c!ped-up! | %13
!ped!{/A,} c2 x2[K:bass] !>!E,/4E/4[I:staff -1]A/4c/4[I:staff +1] x !>!C,/4C/4[I:staff -1]E/4A/4[I:staff +1] x | %14
 !>!A,,/4A,/4[I:staff -1]C/4E/4[I:staff +1] x !>!E,,/4E,/4[I:staff -1]A,/4C/4[I:staff +1] x !>!C,,/4C,/4[I:staff -1]E,/4A,/4[I:staff +1] x !>!A,,,/4A,,/4[I:staff -1]C,/4E,/4[I:staff +1] x | %15
 A,,,/4A,,/4[I:staff -1]C,/4E,/4[I:staff +1] x A,,/4A,/4C/4E/4 x (6:4:6A,,,/E,,/A,,/[I:staff -1]C,/E,/C/[I:staff +1] (6:4:6C,,/A,,/C,/[I:staff -1]E,/A,/-E/-!ped-up! | %16
!ppp!!ped![I:staff +1] [E,,C,][A,,E,][C,A,]E, !>![A,,E,][C,A,][E,C]A, | %17
 !>![A,,E,][E,A,C][A,CE][K:treble][CEA] [EAc][Ace][cea][eac'] | %18
 [ac'e']2 !tenuto![ac'e']4 !tenuto![ac'e']2!ped-up! |[K:bass] z8 | z8 | z8 | z8 | z8 | %24
 z4!pp!!ped! C,,/4C,/4[I:staff -1]E,/4G,/4[I:staff +1] x C,,/4E,/4[I:staff -1]G,/4C/4[I:staff +1] x | %25
 E,,/4G,/4[I:staff -1]C/4E/4[I:staff +1] x G,,/4C/4[I:staff -1]E/4G/4[I:staff +1] x C,/4E/4[I:staff -1]G/4c/4[I:staff +1] x x2 | %26
[K:treble] x8 | x2!p! c2-!pp! c!p! e2 g!ped-up! | %28
!ped! z/4!pp! A/4c/4f/4- f/4f/4c/4A/4 z/4 A/4c/4f/4- f/4f/4c/4A/4 z/4 A/4=B/4f/4- f/4f/4B/4A/4 z/4 A/4B/4f/4- f/4f/4B/4A/4!ped-up! | %29
!p!!ped! z/4!pp! G/4=B/4=e/4- e/4e/4B/4G/4 z/4 G/4B/4G/4B/4G/4B/4G/4 z/4 G/4B/4e/4- e/4e/4B/4G/4 z/4 G/4c/4_e/4- e/4e/4c/4G/4!ped-up! | %30
!p!!ped! z/4!pp! E/4G/4E/4G/4E/4G/4E/4 z/4 E/4G/4E/4G/4E/4G/4E/4 z/4 C/4E/4G/4-G/4G/4E/4C/4 z/4 C/4E/4A/4-A/4E/4C/4G,/4!ped-up! | %31
!p!!ped! z/4!pp! C/4F/4A/4A/4A/4F/4C/4 z/4 C/4F/4A/4A/4A/4F/4C/4 z/4 =D/4F/4A/4A/4A/4F/4D/4 z/4 D/4F/4G/4G/4G/4F/4D/4!ped-up! | %32
!ped! C/4E/4G/4e/4- e/4e/4G/4E/4 x2 x2[K:bass] !>!E,/4E/4[I:staff -1]G/4c/4[I:staff +1] x | %33
 !>!C,/4C/4[I:staff -1]E/4G/4[I:staff +1] x !>!G,,/4G,/4[I:staff -1]C/4E/4[I:staff +1] x !>!E,,/4E,/4[I:staff -1]G,/4C/4[I:staff +1] x !>!C,,/4C,/4[I:staff -1]E,/4G,/4[I:staff +1] x | %34
 !>!C,,/4C,/4[I:staff -1]E,/4G,/4[I:staff +1] x !>!C,/4C/4[I:staff -1]E/4G/4[I:staff +1] x !>!C,,/4C,/4[I:staff -1]E,/4G,/4[I:staff +1] x (6:4:6E,,/C,/E,/[I:staff -1]G,/C/-G/-!ped-up! | %35
!ppp!!ped![I:staff +1] [G,,E,][C,G,][E,C]G, [C,G,][E,C][G,E]C | %36
 [C,G,][G,CE][K:treble][CEG][EGc] [Gce][EGc][CEG][Gce] | %37
 [ceg]2 !tenuto![ceg]4 !tenuto!!fermata![ceg]2!ped-up! |[K:bass] [A,C]4 [F,A,]3 [D,F,] | %39
 [D,F,]4 [B,,D,]4 | [A,,C,]4[K:treble] A4- | A4 [FA]4 | [EG]8 ||[M:6/4][K:bass] z12 | %44
 z6 !>![A,C]6 | %45
!ff!!ped!!8vb(! !///-!E,,,3 E,,3!>(! E,,,/4E,,/4E,,,/4E,,/4E,,,/4E,,/4E,,,/4E,,/4E,,,/4E,,/4E,,,/4E,,/4E,,,/4E,,/4E,,,/4E,,/4E,,,/4E,,/4E,,,/4E,,/4E,,,/4E,,/4E,,,/4E,,/4-!>)! | %46
 [E,,,E,,]2!ped-up!!8vb)! z2 z2 z2 z2 !>!_G,2 | !>!_C2 !>!B,2 !>!A,2 !>!_G,4 !>!A,2 | %48
!>(!!ped! _G,,,/4_G,,/4G,,,/4G,,/4G,,,/4G,,/4G,,,/4G,,/4G,,,/4G,,/4G,,,/4G,,/4G,,,/4G,,/4G,,,/4G,,/4G,,,/4G,,/4G,,,/4G,,/4G,,,/4G,,/4G,,,/4G,,/4G,,,/4G,,/4G,,,/4G,,/4G,,,/4G,,/4G,,,/4G,,/4G,,,/4G,,/4G,,,/4G,,/4G,,,/4G,,/4G,,,/4G,,/4G,,,/4G,,/4G,,,/4G,,/4G,,,/4G,,/4G,,,/4G,,/4-!>)! | %49
!p! [_G,,,G,,]2!ped-up! z2 z2 z2 z2!mf! !>!=A,2 | !>![=D,=A,]6 !>![^F,A,]6 | %51
 !>![^C,^G,]6 !>!=B,4 !>!^A,!>!G, | %52
 !>!E,4 !>!=F,2 !>![_G,,E,_G,]2- [G,,E,G,]!>![_C,E,G,]- [C,E,G,]2 | E,4 E,F, _G,2 F,3 E, || %54
[M:4/4]!8vb(!!ped! !///-!E,,,2 E,,2!>(! E,,,/4E,,/4E,,,/4E,,/4E,,,/4E,,/4E,,,/4E,,/4E,,,/4E,,/4E,,,/4E,,/4E,,,/4E,,/4E,,,/4!pp!E,,/4!ped-up! x2!8vb)!!>)! | %55
 _C4 [A,C]3 [_F,A,] | [_F,A,]4 [D,F,]4 | [_C,E,]8- | [C,E,]4 z4 || %59
[M:6/4][K:treble]!pp![I:staff -1] e6!ped! _g4!ped-up! e2 | e6!ped! f4!ped-up! d2 | %61
!ped! d4!ped-up! f2!ped! d4!ped-up! c2 |[I:staff +1][K:bass][I:staff -1] F6"_cresc." A4 F2 | %63
 F6 E4 C2 | E6 E4 B,2 |!mp! G,6!mf! [=D,G,]4 [E,G,]2 | [F,A,]4 [_D,F,]2 [C,F,]4 [D,F,]2 | %67
 [E,G,]4 F,2 [F,A,]4 !>![G,E]2 || %68
[M:9/4]!ff![I:staff +1] [F,,C,]6!mf!!ped!!8vb(! !///-!!>!A,,,3 E,,3- [A,,,E,,]2!ped-up!!8vb)! !>![F,,D,]4 | %69
!ped!!8vb(! !///-!E,,,3 E,,3-!ped-up! !>![E,,,E,,]6!8vb)! !>![_G,,D,]2- [G,,D,][E,,C,]- [E,,C,]2 | %70
 [D,,D,]6 [C,,C,]4 [F,,C,]2- [F,,C,]2 [B,,,B,,]4 || %71
[M:6/4]!pp!"^dim."!ped!!8vb(! B,,,,/4B,,,/4B,,,,/4B,,,/4B,,,,/4B,,,/4B,,,,/4B,,,/4B,,,,/4B,,,/4B,,,,/4B,,,/4B,,,,/4B,,,/4B,,,,/4B,,,/4B,,,,/4B,,,/4B,,,,/4B,,,/4B,,,,/4B,,,/4B,,,,/4B,,,/4!ppp! E,,,2!ped-up!!8vb)! C3 B, | %72
 A,2 B,2 CD C2 B,2 A,B, | C4 DE B,2 A,2 B,C | D2 E2 z2 A,2 B,2 C2 | F,2 D2 C2 B,4 CD | [A,,E,]12 || %77
[M:4/4]!ppp!!ped! !///-!A,,,2 A,,2 !///-!A,,,2 A,,2 | %78
 !///-!A,,,2 A,,2!ped-up!!ped! !///-!F,,,2 A,,,2 | !////-!F,,,2 A,,,2 !////-!F,,,2 A,,,2 | %80
 !////-!F,,,2 A,,,2 !////-!F,,, A,,, F,,, z!ped-up! | %81
[K:treble]!pp!!ped!!>(! [EG]2 C>=D!ped-up!!ped! x2!>)!!pp! _G2!ped-up! | %82
!ppp!!ped! z!pp!!<(! =G2 A!ped-up!!<)!!>(!!ped! G2 _D>E!>)!!ped-up! | %83
!pp!!ped! _F8[K:bass]!ped-up! |!ped! z2[K:treble]!pp! _C2-!<(! C E2 _G- | %85
 G>A A2- A B2!<)!!pp! _c!ped-up! |!ped! B6!ped-up!!ped!!pp! __B2!ped-up! | %87
!ppp!!ped! z!pp!!<(! B2 _c!ped-up!!<)!!ped! B2!>(! _F>_G!ped-up!!>)! || %88
[K:D]!pp!!ped! =G8[K:bass]!ped-up! |!ped! z2[K:treble]!pp! D2-!<(! D =F2 A-!ped-up! | %90
!ped! A>_B B2-!ped-up!!ped! B c2!<)!!pp! d!ped-up! | %91
!ped! c4!ped-up!!pp!!ped! z!<(! c2 d!ped-up!!<)! | %92
!ped! c4!ped-up!!ped!!pp! z c2- c/!ped-up!!ped!d/!ped-up! |!ped! c2 F>^G!ped-up!!ped! A4-!ped-up! | %94
!ped! A!>!^D!>!E!>!F!ped-up!!ped! G3 F-!ped-up! | %95
!ppp!!ped! F!pp! =F2 E!ped-up!!ppp!!ped! z!pp!!<(! !>!F!>!G!>!A!ped-up!!<)! | %96
[K:bass]!ppp!!ped! !////-!G, D !////-!G, C!ped-up!!ped! !////-!=C, =C!ped-up!!ped! !///-!C,/=B,/ !///-!C,/_B,/!ped-up! || %97
[K:Ab]!ppp!!ped! !////-!D, A,!ppp! !////-![D,F,] A,!ped-up!!p! D,2!mp!!ped! D,/_E,/(3=E,/!ped-up!F,/=G,/ | %98
!mf!!ped! A,3/2G,/4F,/4!ped-up!!ped![I:staff -1] =D[I:staff +1]=D,!ped-up!!ped!"_dim." _G,2!ped-up!!ped! G,F,/E,/!ped-up! | %99
!ped! F,-(3F,/_G,/!ped-up!=G,/!ped! _A,=A,/!ped-up!B,/!pp!!ped! !////-!E,, E,!ped-up!!ped! !////-!_F,, _F,!ped-up! | %100
!ped! !////-!D,, D,!ped-up!!ped! !////-!_F,, _F,!ped-up!!ped! !////-!B,,, B,,!ped-up!!ppp!!ped! !////-!D,, D,!ped-up! | %101
!ppp!!ped! !////-!=A,,,2 =A,,2!ped-up!!ped! C,7/2 =C,/!ped-up! | %102
!ppp!!ped![I:staff -1] A,4 [_G,__B,]4!ped-up! |!ped! =E,2 [F,A,]2!ped-up!!ped! [F,A,]4-!ped-up! | %104
 [F,A,]2[I:staff +1] z2 z4 |!ppp!!ped![I:staff -1] [A,B,]8!ped-up! |!ped! [DA]8!ped-up! | %107
!ped! [EGB]8!ped-up! |!ped! [gb]3 [gbd']2[I:staff +1] x x2!ped-up! | %109
!ped! E,,,2!pp! [E,G,B,]2 [G,B,E]2 [B,EG]2!ped-up! |[K:treble]!ped! [EGB]2 [GBe]2 [Beg]2 [egb]2- | %111
 b>e' [egbe']4 [egbe']2 | [egbe']8!ped-up! | A4 [FA]3 [DF] |!ped! F6 B2 | A8!ped-up! |] %116
V:3
 x8 | x8 | x8 | x8 | x8 | x8 | x8 |[K:treble] x8 | x8 | x4 A4 | E6!pp! C2 | F6!pp! _D2 | B,4 E4 | %13
 x4[K:bass] x4 | x8 | x8 | x8 | x3[K:treble] x5 | x8 |[K:bass] x8 | x8 | x8 | x8 | x8 | x8 | x8 | %26
[K:treble] x8 | x4 c4 | =D4 D2 E2 | =E4 E2 _E2 | =D2 C2 B,2 A,7/4G,/4 | F,4 G,4 | x6[K:bass] x2 | %33
 x8 | x8 | x8 | x2[K:treble] x6 | x8 |[K:bass] x8 | x8 | x4[K:treble] x4 | x8 | x8 || %43
[M:6/4][K:bass] x12 | x12 |!8vb(! x12 | x2!8vb)! x10 | x6 !>!_C,6 | x12 | x12 | x12 | x6 =E,6 | %52
 [_A,,_E,]6 x2 x4 | F,,4 A,,2 B,,6 ||[M:4/4]!8vb(! x10!8vb)! | x8 | x8 | x8 | x8 || %59
[M:6/4][K:treble] _c6 e4 c2 | B6 d4 B2 | [FA]4 [Bd]2 [EB]4 A2 |[K:bass] [B,D]6 F4 D2 | C6 C4 E2 | %64
 B,4 C2 C4 =D2 | [E,,E,]6 !>!G,,2 !>!F,,2 !>!E,,2 | _D,,6 !>!F,,2 !>!E,,2 !>!D,,2 | %67
 !>!C,,4 [F,,C,]2 !>![B,,,B,,]4 E,,2 ||[M:9/4] x6!8vb(! x8!8vb)! x4 |!8vb(! x12!8vb)! x6 | x18 || %71
[M:6/4]!8vb(! x8!8vb)! [E,G,]4 | F,6 A,2 G,2 F,2 | E,6 _G,2 F,2 E,2 | D,6 C,4 F,2 | B,,6 E,6 | %76
 x12 ||[M:4/4] x8 | x8 | x8 | x8 |[K:treble] x4 E4 | F4 G4 | %83
 z[K:bass]!ppp! _G,,2!<(! D, _F,_G,B,!<)!!pp!D | x2[K:treble] x6 | x4 A4 | B2!pp!!>(! E>F _G4!>)! | %87
 A4 B4 ||[K:D] z[K:bass]!ppp! A,,2!<(! E, G,A,CE!<)! | x2[K:treble] x6 | x8 | %91
 c2!pp!!>(! G>A!>)! _B2- B z | c2!>(! G>A!>)! _B2- B z | x4 z2 F,2- | F, z z2 G,4 | A,4 _B,4 | %96
[K:bass] x8 ||[K:Ab] x4 !>!B,,2 !>!A,,2 | !>!G,,2 !>!F,,2 !>!E,,2 !>!F,,2 | B,,2 D,2 x4 | x8 | %101
 z4 =A,,2 !>!F,,2 | !////-!E,,2 =C,2 !////-!=C,,2 =C,2 | !////-!D,,2 D,2 !////-!B,,,2 B,,2 | %104
 B,,,2 z2 z4 | !////-!E,,,2 E,,2 !////-!E,,,2 E,,2 | !////-!E,,,2 E,,2 !////-!E,,,2 E,,2 | %107
 !////-!E,,,2 E,,2 !////-!E,,,2 E,,2 | !////-!E,,,2 E,,2 !////-!E,,,2 E,,2 | x8 |[K:treble] x8 | %111
 [eg]2 x2 x4 | x8 | x8 | [DF]4 [B,D]4 | x8 |] %116
V:4
 x8 | x8 | x8 | x8 | x8 | x4[K:bass] x5/2[K:treble] x3/2 | x8 | %7
 x5/2!8va(! x3/2!8va)! x/!8va(! x3/2!8va)! x/!8va(! x3/2!8va)! | x/!8va(! x15/2 | x8 | %10
 x2!8va)! x6 | x8 | x8 | x8 | x9/2[K:bass] x7/2 | x5/2[K:treble] x5/2[K:bass] x3 | %16
 x/[K:treble] x15/2 | x7/2!8va(! x9/2 | x8!8va)! | x8 | x8 | x8 | x8 | x8 | %24
 x4[K:bass] x5/2[K:treble] x3/2 | x8 | %26
 x/!8va(! x3/2!8va)! x/!8va(! x3/2!8va)! x/!8va(! x3/2!8va)! x/!8va(! x3/2!8va)! | %27
 x/!8va(! x15/2!8va)! | x8 | x8 | x8 | x8 | c8 | x13/2[K:bass] x3/2 | %34
 x5/2[K:treble] x2[K:bass] x5/2[K:treble] x | x8 | x5/2!8va(! x11/2 | x8!8va)! | x8 | x8 | x8 | %41
 x8 | x8 ||[M:6/4] x12 | x12 | x12 | x12 | x6 !>!E6 | x12 | x12 | ^F6 ^C4 ^D2 | =E6 E2 ^D2 ^C2 | %52
 _C6 _B,2- B,C- C2 | _C6 B,2 [A,B,-]3 [_G,B,] ||[M:4/4] x10 | x8 | x8 | x8 | x8 ||[M:6/4] x12 | %60
 x12 | x12 | x12 | x12 | x12 |[K:bass] x12 | x12 | x12 ||[M:9/4][K:treble] x4 !>!A,!>!B, x4 x8 | %69
 x8 x2 G,A, x4 x2 |[K:bass] x4 F,G, x4 x8 ||[M:6/4] x10[K:treble] x2 | x6 A2 Bc d2 | %73
 x6 _G2 A2 [GB]2 | F2 _G2 [FA][GB] [EA]4 A2 | [FA-]6 E6 | x12 ||[M:4/4] x8 | x8 | x8 | x8 | G6 x2 | %82
 x8 | x8 | x8 | x8 | x8 | x8 ||[K:D] x8 | x8 | x8 | x8 | x8 | x8 | x8 | x4 x4 | %96
 _B3!pp! !>!A A !>!_A2 !>!G ||[K:Ab] =E2 =F3 F!mf! =E>_E | [=DF]2 A2 _G-(3G/F/=E/ _E3/2_D/4C/4 | %99
 D2 _F2 x4 | x8 | x G,3- G,2 _A,2 |[K:bass] x8 | x8 | x8 |[K:treble] x8 | x8 | x8 | x8 | x8 | %110
 x!8va(! x7 | x8 | x8!8va)! |!8va(! x8 | x8 | x8!8va)! |] %116
V:5
 x8 | x8 | x8 | x8 | x8 | x8 | x8 |[K:treble] x8 | x8 | x8 | x8 | x8 | x8 | x4[K:bass] x4 | x8 | %15
 x8 | x8 | x3[K:treble] x5 | x8 |[K:bass] x8 | x8 | x8 | x8 | x8 | x8 | x8 |[K:treble] x8 | x8 | %28
 x8 | x8 | x8 | x8 | x6[K:bass] x2 | x8 | x8 | x8 | x2[K:treble] x6 | x8 |[K:bass] x8 | x8 | %40
 x4[K:treble] x4 | x8 | x8 ||[M:6/4][K:bass] x12 | x12 |!8vb(! x12 | x2!8vb)! x10 | x12 | x12 | %49
 x12 | x12 | x12 | x12 | x12 ||[M:4/4]!8vb(! x10!8vb)! | x8 | x8 | x8 | x8 || %59
[M:6/4][K:treble] A6 _c2 B2 A2 | _G6 B2 A2 G2 | x12 |[K:bass] x6 D2 C2 B,2 | A,6 C2 B,2 A,2 | %64
 G,6 F,4 z2 | x12 | x12 | x12 ||[M:9/4] x6!8vb(! x8!8vb)! x4 |!8vb(! x12!8vb)! x6 | x18 || %71
[M:6/4]!8vb(! x8!8vb)! x4 | x12 | x12 | x12 | x12 | x12 ||[M:4/4] x8 | x8 | x8 | x8 | %81
[K:treble] x8 | x8 | x[K:bass] x7 | x2[K:treble] x6 | x8 | x8 | x8 ||[K:D] x[K:bass] x7 | %89
 x2[K:treble] x6 | x8 | x8 | x8 | x8 | x8 | x4 c2 d2 |[K:bass] x8 ||[K:Ab] x8 | x8 | x8 | x8 | x8 | %102
 x8 | x8 | x8 | x8 | x8 | x8 | x8 | x8 |[K:treble] x8 | x8 | x8 | x8 | x8 | x8 |] %116
V:6
 x8 | x8 | x8 | x8 | x8 | x4[K:bass] x5/2[K:treble] x3/2 | x8 | %7
 x5/2!8va(! x3/2!8va)! x/!8va(! x3/2!8va)! x/!8va(! x3/2!8va)! | x/!8va(! x15/2 | x8 | %10
 x2!8va)! x6 | x8 | x8 | x8 | x9/2[K:bass] x7/2 | x5/2[K:treble] x5/2[K:bass] x3 | %16
 x/[K:treble] x15/2 | x7/2!8va(! x9/2 | x8!8va)! | x8 | x8 | x8 | x8 | x8 | %24
 x4[K:bass] x5/2[K:treble] x3/2 | x8 | %26
 x/!8va(! x3/2!8va)! x/!8va(! x3/2!8va)! x/!8va(! x3/2!8va)! x/!8va(! x3/2!8va)! | %27
 x/!8va(! x15/2!8va)! | x8 | x8 | x8 | x8 | x8 | x13/2[K:bass] x3/2 | %34
 x5/2[K:treble] x2[K:bass] x5/2[K:treble] x | x8 | x5/2!8va(! x11/2 | x8!8va)! | x8 | x8 | x8 | %41
 x8 | x8 ||[M:6/4] x12 | x12 | x12 | x12 | x12 | x12 | x12 | x12 | x12 | x12 | x12 ||[M:4/4] x10 | %55
 x8 | x8 | x8 | x8 ||[M:6/4] x12 | x12 | x12 | x12 | x12 | x12 |[K:bass] x12 | x12 | x12 || %68
[M:9/4][K:treble] x18 | x18 |[K:bass] x18 ||[M:6/4] x10[K:treble] x2 | x12 | x12 | B4 x8 | %75
 x6 A2 =G4 | x12 ||[M:4/4] x8 | x8 | x8 | x8 | x8 | x8 | x8 | x8 | x8 | x8 | x8 ||[K:D] x8 | x8 | %90
 x8 | x8 | x8 | x8 | x8 | x8 | =F2 E4 x2 ||[K:Ab] x8 | x8 | x8 | x8 | x8 |[K:bass] x8 | x8 | x8 | %105
[K:treble] x8 | x8 | x8 | x8 | x8 | x!8va(! x7 | x8 | x8!8va)! |!8va(! x8 | x8 | x8!8va)! |] %116

